X:1
T:Kost ar c'hoat : Gwareg (TBI 1416)
Z:Roger Ngaret (Novembre 99)
C:Trad.
S:Tonio Breizh-Izel (Polig Monjarret)
A:Bretagne
M:4/4
Q:70
K:Eb
E/D/E B>B AB G>B |1 AF GE DE F/G/F :|2 AF G/F/G E2 E2 |:
E/D/E B>B AB G>B |1 AF GE DE F/G/F :|2 AF G/F/G E2 E2 |:
B2 BG cB AG | A2 AF BA G2 | G2 GE AG FE | FA G/F/G E2 E2 ::
F/E/F B>B cd e>B | ed c/d/c B4 :: 
B2 BE A/G/A F2 | F2 GA GF G2 | B2 BE AG F2 | FG/A/ G/F/G E2 E2 ::
E/D/E B>B A/c/A B>B | cB cd e2 B2 ::
B2 ed cB GE |1 G2 BA FA G2 :|2 BA FA G/F/G E2 |:
B2 ed cB GE |1 G2 BA FA G2 :|2 BA FA G/F/G E2 |]
